src/topics/icons/bourbon.svg

<svg height="252" preserveAspectRatio="xMidYMid" viewBox="0 0 256 252" width="256" xmlns="http://www.w3.org/2000/svg" xmlns:xlink="http://www.w3.org/1999/xlink"><linearGradient id="a" x1="46.64585%" x2="57.362591%" y1="-2.088643%" y2="137.781163%"><stop offset="0" stop-color="#ff992e"/><stop offset=".635" stop-color="#ff4c2e"/><stop offset="1" stop-color="#e3302e"/></linearGradient><path d="m51.5348709 251.616129c-15.0398164 0-27.7484613-11.580659-29.8540356-26.319679-.2255972-2.105574-21.05574293-190.5544741-21.05574293-192.6600484-.22559725-.5263936-.52639357-1.0527871-.52639357-1.5791807l.05013272-6.3167229c0-5.2639358 2.05544157-10.5278715 6.26659017-13.6862329 3.50929051-4.73754221 11.58065861-11.0542651 121.59691531-11.0542651 109.765594 0 117.912161 6.31672289 121.596916 11.0542651 3.709821 3.684755 5.790329 8.4222971 5.790329 14.2126265l-.075199 5.2639357c0 1.0527872.075199 1.5791807-.451194 2.6319679l-22.359194 192.1336548c0 .526393-.27573 1.052787-.27573 1.579181-2.732233 14.212626-15.265414 24.740498-29.47804 24.740498z" fill="#e5d1bf"/><path d="m247.553809 24.9510554c0-3.684755-1.478915-6.8431164-3.584489-8.9486907-5.4394-6.31672293-55.271326-8.42229723-116.33298-8.42229723-60.8109916 0-110.5426509 1.57918072-116.3329802 7.89590363-2.13064069 2.6319679-3.68475506 5.2639357-3.68475506 8.9486907l.05013273 5.7903294c0 .5263935-.05013273 1.0527871.47626085 1.5791807-.22559725.5263936 21.05574298 192.1336551 21.05574298 192.1336551 1.529048 11.054265 11.054265 19.476562 22.1085301 19.476562h151.1250886c11.530526 0 21.00561-8.422297 22.058397-19.476562h.250664l22.559724-192.1336551v-1.5791807-5.2639358z" fill="#fef9ec"/><ellipse cx="127.109946" cy="23.371875" fill="#e5d1bf" rx="105.805108" ry="5.790329"/><path d="m213.964886 205.504051c-.250663 6.843117-5.263936 12.107053-12.107052 12.107053h-149.5709745c-6.5172538 0-11.5054596-5.263936-12.0318532-12.107053-1.0026544-17.897381-7.36951-71.589526-7.36951-71.589526-.1503982-4.737542 2.1055743-7.36951 7.36951-7.36951h173.7098797c4.762608 0 7.36951 2.631968 7.36951 7.36951.150398 0-6.843117 53.692145-7.36951 71.589526z" fill="url(#a)"/><g fill="#fef9ec"><path d="m97.1556472 136.335936c-3.007963 3.684755-2.306105 9.475084 1.9050436 12.633446l32.6865342 25.793285c4.010618 2.631968 9.951345 2.105574 12.583313-2.105575l25.517555-33.162795c3.007964-3.684755 2.381305-9.475084-1.829844-12.633446l-32.761733-25.793285c-4.010618-2.6319676-9.876147-2.105574-13.034508 2.105575z" opacity=".65"/><path d="m65.8226966 112.121831c-5.0132724.526394-8.3470982 5.263936-7.8207046 10.001478l5.3140684 41.585093c.7519911 5.263935 5.2138031 8.422297 10.4777388 7.895903l40.9083008-5.263936c5.013272-1.052787 8.572695-5.263935 7.519908-10.527871l-5.013272-41.585092c-.751991-4.737543-5.514599-8.422298-10.252142-7.36951z" opacity=".65"/></g></svg>

<?xml version="1.0" encoding="UTF-8" standalone="no"?>
<svg width="256px" height="252px" viewBox="0 0 256 252" version="1.1" xmlns="http://www.w3.org/2000/svg" xmlns:xlink="http://www.w3.org/1999/xlink" preserveAspectRatio="xMidYMid">
    <defs>
        <linearGradient x1="46.6458496%" y1="-2.08864266%" x2="57.3625907%" y2="137.781163%" id="linearGradient-1">
            <stop stop-color="#FF992E" offset="0%"></stop>
            <stop stop-color="#FF4C2E" offset="63.5%"></stop>
            <stop stop-color="#E3302E" offset="100%"></stop>
        </linearGradient>
    </defs>
	<g>
		<path d="M51.5348709,251.616129 C36.4950545,251.616129 23.7864096,240.03547 21.6808353,225.29645 C21.4552381,223.190876 0.625092369,34.7419759 0.625092369,32.6364016 C0.399495123,32.110008 0.0986987952,31.5836145 0.0986987952,31.0572209 L0.148831519,24.740498 C0.148831519,19.4765622 2.20427309,14.2126265 6.41542169,11.0542651 C9.9247122,6.31672289 17.9960803,0 128.012337,0 C237.777931,0 245.924498,6.31672289 249.609253,11.0542651 C253.319074,14.7390201 255.399582,19.4765622 255.399582,25.2668916 L255.324383,30.5308273 C255.324383,31.5836145 255.399582,32.110008 254.873189,33.1627952 L232.513995,225.29645 C232.513995,225.822843 232.238265,226.349237 232.238265,226.875631 C229.506032,241.088257 216.972851,251.616129 202.760225,251.616129 L51.5348709,251.616129 L51.5348709,251.616129 Z" fill="#E5D1BF"></path>
		<path d="M247.553809,24.9510554 C247.553809,21.2663004 246.074894,18.107939 243.96932,16.0023647 C238.52992,9.68564177 188.697994,7.58006747 127.63634,7.58006747 C66.8253484,7.58006747 17.0936891,9.15924819 11.3033598,15.4759711 C9.17271911,18.107939 7.61860474,20.7399068 7.61860474,24.4246618 L7.66873747,30.2149912 C7.66873747,30.7413847 7.61860474,31.2677783 8.14499832,31.7941719 C7.91940107,32.3205655 29.2007413,223.927827 29.2007413,223.927827 C30.7297893,234.982092 40.2550063,243.404389 51.3092714,243.404389 L202.43436,243.404389 C213.964886,243.404389 223.43997,234.982092 224.492757,223.927827 L224.743421,223.927827 L247.303145,31.7941719 L247.303145,30.2149912 L247.303145,24.9510554 L247.553809,24.9510554 L247.553809,24.9510554 Z" fill="#FEF9EC"></path>
		<ellipse fill="#E5D1BF" cx="127.109946" cy="23.3718747" rx="105.805108" ry="5.79032932"></ellipse>
		<path d="M213.964886,205.504051 C213.714223,212.347168 208.70095,217.611104 201.857834,217.611104 L52.2868595,217.611104 C45.7696057,217.611104 40.7813999,212.347168 40.2550063,205.504051 C39.2523519,187.60667 32.8854963,133.914525 32.8854963,133.914525 C32.7350981,129.176983 34.9910706,126.545015 40.2550063,126.545015 L213.964886,126.545015 C218.727494,126.545015 221.334396,129.176983 221.334396,133.914525 C221.484794,133.914525 214.491279,187.60667 213.964886,205.504051 L213.964886,205.504051 L213.964886,205.504051 Z" fill="url(#linearGradient-1)"></path>
		<path d="M97.1556472,136.335936 C94.1476842,140.020691 94.8495422,145.81102 99.0606908,148.969382 L131.747225,174.762667 C135.757843,177.394635 141.69857,176.868241 144.330538,172.657092 L169.848093,139.494297 C172.856057,135.809542 172.229398,130.019213 168.018249,126.860851 L135.256516,101.067566 C131.245898,98.4355984 125.380369,98.961992 122.222008,103.173141 L97.1556472,136.335936 L97.1556472,136.335936 Z" opacity="0.65" fill="#FEF9EC"></path>
		<path d="M65.8226966,112.121831 C60.8094242,112.648225 57.4755984,117.385767 58.001992,122.123309 L63.3160604,163.708402 C64.0680515,168.972337 68.5298635,172.130699 73.7937992,171.604305 L114.7021,166.340369 C119.715372,165.287582 123.274795,161.076434 122.222008,155.812498 L117.208736,114.227406 C116.456745,109.489863 111.694137,105.805108 106.956594,106.857896 L65.8226966,112.121831 L65.8226966,112.121831 Z" opacity="0.65" fill="#FEF9EC"></path>
	</g>
</svg>
